symbols/web/transfer_within_a_station/materialsymbolsoutlined/transfer_within_a_station_wght600gradN25_24px.svg

<svg xmlns="http://www.w3.org/2000/svg" height="24" width="24"><path d="M9.25 5.375q-.925 0-1.55-.638-.625-.637-.625-1.562 0-.9.625-1.525.625-.625 1.55-.625.9 0 1.538.625.637.625.637 1.525 0 .925-.637 1.562-.638.638-1.538.638ZM2.45 23 5.225 9.125l-1.55.65v3.375H1.35V8.225l5.15-2.1q.775-.325 1.6-.088.825.238 1.3.938l1.025 1.575q.65 1.025 1.738 1.662 1.087.638 2.487.638v2.275q-1.625 0-3.037-.625-1.413-.625-2.413-1.7l-.55 2.625L10.7 15.4V23H8.4v-6l-1.825-1.725L4.85 23Zm14.875-4.65-2.8-2.8 2.8-2.8 1.125 1.175-.825.8H22.6v1.65h-4.975l.825.8Zm2.525 4.9-1.15-1.175.825-.825h-4.95v-1.625h4.95L18.7 18.8l1.15-1.15 2.8 2.8Z"/></svg>

<svg xmlns="http://www.w3.org/2000/svg" height="24" width="24"><path d="M9.25 5.375Q8.325 5.375 7.7 4.737Q7.075 4.1 7.075 3.175Q7.075 2.275 7.7 1.65Q8.325 1.025 9.25 1.025Q10.15 1.025 10.788 1.65Q11.425 2.275 11.425 3.175Q11.425 4.1 10.788 4.737Q10.15 5.375 9.25 5.375ZM2.45 23 5.225 9.125 3.675 9.775V13.15H1.35V8.225L6.5 6.125Q7.275 5.8 8.1 6.037Q8.925 6.275 9.4 6.975L10.425 8.55Q11.075 9.575 12.163 10.212Q13.25 10.85 14.65 10.85V13.125Q13.025 13.125 11.613 12.5Q10.2 11.875 9.2 10.8L8.65 13.425L10.7 15.4V23H8.4V17L6.575 15.275L4.85 23ZM17.325 18.35 14.525 15.55 17.325 12.75 18.45 13.925 17.625 14.725H22.6V16.375H17.625L18.45 17.175ZM19.85 23.25 18.7 22.075 19.525 21.25H14.575V19.625H19.525L18.7 18.8L19.85 17.65L22.65 20.45Z"/></svg>
